symbols/web/router/materialsymbolsoutlined/router_wght700_24px.svg

<svg xmlns="http://www.w3.org/2000/svg" height="24" width="24"><path d="M5.25 22.925q-1.325 0-2.237-.912Q2.1 21.1 2.1 19.775v-4q0-1.325.913-2.238.912-.912 2.237-.912h9.425V9h3.15v3.625h1.425q1.325 0 2.238.912.912.913.912 2.238v4q0 1.325-.912 2.238-.913.912-2.238.912Zm14-3.15v-4h-14v4Zm-11-2q0-.425-.287-.713-.288-.287-.713-.287t-.713.287q-.287.288-.287.713t.287.712q.288.288.713.288t.713-.288q.287-.287.287-.712Zm3.5 0q0-.425-.287-.713-.288-.287-.713-.287t-.712.287q-.288.288-.288.713t.288.712q.287.288.712.288t.713-.288q.287-.287.287-.712Zm2.5 1q.425 0 .713-.288.287-.287.287-.712t-.287-.713q-.288-.287-.713-.287t-.712.287q-.288.288-.288.713t.288.712q.287.288.712.288Zm.2-10.95L12.775 6.15q.65-.65 1.563-1.038.912-.387 1.912-.387 1 0 1.913.387.912.388 1.562 1.038L18.05 7.825q-.35-.3-.812-.5-.463-.2-.988-.2-.525 0-.987.2-.463.2-.813.5ZM11.725 5.1l-1.65-1.675q1.1-1.15 2.7-1.863Q14.375.85 16.25.85t3.475.712q1.6.713 2.7 1.863L20.775 5.1q-.825-.825-2-1.35-1.175-.525-2.525-.525-1.35 0-2.525.525-1.175.525-2 1.35ZM5.25 19.775v-4 4Z"/></svg>

<svg xmlns="http://www.w3.org/2000/svg" height="24" width="24"><path d="M5.25 22.925Q3.925 22.925 3.013 22.013Q2.1 21.1 2.1 19.775V15.775Q2.1 14.45 3.013 13.537Q3.925 12.625 5.25 12.625H14.675V9H17.825V12.625H19.25Q20.575 12.625 21.488 13.537Q22.4 14.45 22.4 15.775V19.775Q22.4 21.1 21.488 22.013Q20.575 22.925 19.25 22.925ZM19.25 19.775Q19.25 19.775 19.25 19.775Q19.25 19.775 19.25 19.775V15.775Q19.25 15.775 19.25 15.775Q19.25 15.775 19.25 15.775H5.25Q5.25 15.775 5.25 15.775Q5.25 15.775 5.25 15.775V19.775Q5.25 19.775 5.25 19.775Q5.25 19.775 5.25 19.775ZM8.25 17.775Q8.25 17.35 7.963 17.062Q7.675 16.775 7.25 16.775Q6.825 16.775 6.537 17.062Q6.25 17.35 6.25 17.775Q6.25 18.2 6.537 18.487Q6.825 18.775 7.25 18.775Q7.675 18.775 7.963 18.487Q8.25 18.2 8.25 17.775ZM11.75 17.775Q11.75 17.35 11.463 17.062Q11.175 16.775 10.75 16.775Q10.325 16.775 10.038 17.062Q9.75 17.35 9.75 17.775Q9.75 18.2 10.038 18.487Q10.325 18.775 10.75 18.775Q11.175 18.775 11.463 18.487Q11.75 18.2 11.75 17.775ZM14.25 18.775Q14.675 18.775 14.963 18.487Q15.25 18.2 15.25 17.775Q15.25 17.35 14.963 17.062Q14.675 16.775 14.25 16.775Q13.825 16.775 13.538 17.062Q13.25 17.35 13.25 17.775Q13.25 18.2 13.538 18.487Q13.825 18.775 14.25 18.775ZM14.45 7.825 12.775 6.15Q13.425 5.5 14.338 5.112Q15.25 4.725 16.25 4.725Q17.25 4.725 18.163 5.112Q19.075 5.5 19.725 6.15L18.05 7.825Q17.7 7.525 17.238 7.325Q16.775 7.125 16.25 7.125Q15.725 7.125 15.263 7.325Q14.8 7.525 14.45 7.825ZM11.725 5.1 10.075 3.425Q11.175 2.275 12.775 1.562Q14.375 0.85 16.25 0.85Q18.125 0.85 19.725 1.562Q21.325 2.275 22.425 3.425L20.775 5.1Q19.95 4.275 18.775 3.75Q17.6 3.225 16.25 3.225Q14.9 3.225 13.725 3.75Q12.55 4.275 11.725 5.1ZM5.25 19.775Q5.25 19.775 5.25 19.775Q5.25 19.775 5.25 19.775V15.775Q5.25 15.775 5.25 15.775Q5.25 15.775 5.25 15.775Q5.25 15.775 5.25 15.775Q5.25 15.775 5.25 15.775V19.775Q5.25 19.775 5.25 19.775Q5.25 19.775 5.25 19.775Z"/></svg>
